material/.icons/material/diameter-outline.svg

<svg xmlns="http://www.w3.org/2000/svg" viewBox="0 0 24 24"><path d="M12 2A10 10 0 002 12a10 10 0 0010 10 10 10 0 0010-10A10 10 0 0012 2m0 18a8 8 0 01-8-8 8 8 0 018-8 8 8 0 018 8 8 8 0 01-8 8m4-5v-2H8v2l-3-3 3-3v2h8V9l3 3-3 3z"/></svg>

<?xml version="1.0" encoding="UTF-8"?><!DOCTYPE svg PUBLIC "-//W3C//DTD SVG 1.1//EN" "http://www.w3.org/Graphics/SVG/1.1/DTD/svg11.dtd"><svg xmlns="http://www.w3.org/2000/svg" xmlns:xlink="http://www.w3.org/1999/xlink" version="1.1" id="mdi-diameter-outline" width="24" height="24" viewBox="0 0 24 24"><path d="M12,2A10,10 0 0,0 2,12A10,10 0 0,0 12,22A10,10 0 0,0 22,12A10,10 0 0,0 12,2M12,20A8,8 0 0,1 4,12A8,8 0 0,1 12,4A8,8 0 0,1 20,12A8,8 0 0,1 12,20M16,15V13H8V15L5,12L8,9V11H16V9L19,12L16,15Z" /></svg>
